_icons/SVG/547-whimsicott-shiny.svg

<svg xmlns="http://www.w3.org/2000/svg" viewBox="0 0 32 32"><title>547-whimsicott-shiny</title><path d="M14.57263,3.14764c-1.89148-3.97736-11.08948.39679-9.198,4.37414-.855-1.53192-2.61285-.55078-1.75781.98114-4.21069,3.63977-5.07019,7.92993-.85852,13.20423-1.98163.408-1.69543,1.79791.28619,1.38989C1.81238,28.07714,6.96027,32.06646,16,27.29284V1.5844A1.40631,1.40631,0,0,0,14.57263,3.14764Z" style="fill:#e3e5e5"/><path d="M13.62384,12.623a7.32806,7.32806,0,0,0-2.68951,2.70685c2.09222.61932,2.41186,3.55652.04083,4.90558l1.96228,1.75781a3.288,3.288,0,0,0-2.94336,0,5.08144,5.08144,0,0,0,2.45276,2.24841c.56274,1.36945-1.26727,4.21063-.81757,6.17945a3.31339,3.31339,0,0,0,2.41193-1.39649H16V12.99194Z" style="fill:#7f6858"/><path d="M10.93433,15.32989A7.32806,7.32806,0,0,1,13.62384,12.623L9.99408,12.0595c-5.06213,3.30475-4.16974,8.62561.98108,8.176C13.34619,18.88641,13.02655,15.94921,10.93433,15.32989Z" style="fill:#47a1b4"/><ellipse cx="13.85721" cy="17.98706" rx="0.83804" ry="1.4308" style="fill:#e0b12e"/><ellipse cx="13.91427" cy="17.66002" rx="0.29042" ry="0.69496" style="fill:#f7f7f7"/><path d="M13.91425,21.748c-1.50831-2.12573-4.4516.54632-1.38562,1.55347-.23584.66607,1.14984,1.15661,1.38562.49053A2.22453,2.22453,0,0,0,16,25.385V21.04125A2.98283,2.98283,0,0,0,13.91425,21.748Z" style="fill:#edeeee"/><path d="M14.69525,9.32049c0-1.7442-1.67608-1.7442-1.67608,0C10.4248,7.88146,8.593,11.184,11.18732,12.623c-.83808.84735,1.40252,3.0636,2.24066,2.21625,0,1.15478,1.331,1.798,2.572,1.82318V9.32055Z" style="fill:#f7f7f7"/><path d="M17.42737,3.14764c1.89148-3.97736,11.08948.39679,9.198,4.37414.855-1.53192,2.61285-.55078,1.75781.98114,4.21069,3.63977,5.07019,7.92993.85852,13.20423,1.98163.408,1.69543,1.79791-.28619,1.38989,1.23211,4.9801-3.91578,8.96942-12.95551,4.1958V1.5844A1.40631,1.40631,0,0,1,17.42737,3.14764Z" style="fill:#dadddc"/><path d="M18.37616,12.623a7.32806,7.32806,0,0,1,2.68951,2.70685c-2.09222.61932-2.41186,3.55652-.04083,4.90558l-1.96228,1.75781a3.288,3.288,0,0,1,2.94336,0,5.08144,5.08144,0,0,1-2.45276,2.24841c-.56274,1.36945,1.26727,4.21063.81757,6.17945a3.31339,3.31339,0,0,1-2.41193-1.39649H16V12.99194Z" style="fill:#776151"/><path d="M21.06567,15.32989A7.32806,7.32806,0,0,0,18.37616,12.623l3.62976-.56354c5.06213,3.30475,4.16974,8.62561-.98108,8.176C18.65381,18.88641,18.97345,15.94921,21.06567,15.32989Z" style="fill:#4295ac"/><ellipse cx="18.14279" cy="17.98706" rx="0.83804" ry="1.4308" style="fill:#dba728"/><ellipse cx="18.08573" cy="17.66002" rx="0.29042" ry="0.69496" style="fill:#edeeee"/><path d="M18.08575,21.748c1.50831-2.12573,4.4516.54632,1.38562,1.55347.23584.66607-1.14984,1.15661-1.38562.49053A2.22453,2.22453,0,0,1,16,25.385V21.04125A2.98283,2.98283,0,0,1,18.08575,21.748Z" style="fill:#e3e5e5"/><path d="M17.30475,9.32049c0-1.7442,1.67608-1.7442,1.67608,0C21.5752,7.88146,23.407,11.184,20.81268,12.623c.83808.84735-1.40252,3.0636-2.24066,2.21625,0,1.15478-1.331,1.798-2.572,1.82318V9.32055Z" style="fill:#edeeee"/></svg>

<svg xmlns="http://www.w3.org/2000/svg" viewBox="0 0 32 32"><path d="M14.573 3.148C12.68-.83 3.483 3.544 5.375 7.522c-.855-1.532-2.613-.551-1.758.98-4.21 3.64-5.07 7.93-.859 13.205-1.981.408-1.695 1.798.286 1.39-1.232 4.98 3.916 8.97 12.956 4.196V1.584a1.406 1.406 0 00-1.427 1.564z" fill="#e3e5e5"/><path d="M13.624 12.623a7.328 7.328 0 00-2.69 2.707c2.093.62 2.412 3.556.041 4.905l1.962 1.758a3.288 3.288 0 00-2.943 0 5.081 5.081 0 002.453 2.249c.563 1.37-1.267 4.21-.818 6.18a3.313 3.313 0 002.412-1.397H16V12.992z" fill="#7f6858"/><path d="M10.934 15.33a7.328 7.328 0 012.69-2.707l-3.63-.563c-5.062 3.304-4.17 8.625.981 8.175 2.371-1.349 2.052-4.286-.04-4.905z" fill="#47a1b4"/><ellipse cx="13.857" cy="17.987" rx=".838" ry="1.431" fill="#e0b12e"/><ellipse cx="13.914" cy="17.66" rx=".29" ry=".695" fill="#f7f7f7"/><path d="M13.914 21.748c-1.508-2.126-4.451.546-1.385 1.553-.236.667 1.15 1.157 1.385.491A2.225 2.225 0 0016 25.385v-4.344a2.983 2.983 0 00-2.086.707z" fill="#edeeee"/><path d="M14.695 9.32c0-1.744-1.676-1.744-1.676 0-2.594-1.439-4.426 1.864-1.832 3.303-.838.847 1.403 3.064 2.241 2.216 0 1.155 1.331 1.798 2.572 1.823V9.321z" fill="#f7f7f7"/><path d="M17.427 3.148c1.892-3.978 11.09.396 9.198 4.374.855-1.532 2.613-.551 1.758.98 4.21 3.64 5.07 7.93.859 13.205 1.981.408 1.695 1.798-.286 1.39 1.232 4.98-3.916 8.97-12.956 4.196V1.584a1.406 1.406 0 011.427 1.564z" fill="#dadddc"/><path d="M18.376 12.623a7.328 7.328 0 012.69 2.707c-2.093.62-2.412 3.556-.041 4.905l-1.962 1.758a3.288 3.288 0 012.943 0 5.081 5.081 0 01-2.453 2.249c-.563 1.37 1.267 4.21.818 6.18a3.313 3.313 0 01-2.412-1.397H16V12.992z" fill="#776151"/><path d="M21.066 15.33a7.328 7.328 0 00-2.69-2.707l3.63-.564c5.062 3.305 4.17 8.626-.981 8.176-2.371-1.349-2.052-4.286.04-4.905z" fill="#4295ac"/><ellipse cx="18.143" cy="17.987" rx=".838" ry="1.431" fill="#dba728"/><ellipse cx="18.086" cy="17.66" rx=".29" ry=".695" fill="#edeeee"/><path d="M18.086 21.748c1.508-2.126 4.451.546 1.385 1.553.236.667-1.15 1.157-1.385.491A2.225 2.225 0 0116 25.385v-4.344a2.983 2.983 0 012.086.707z" fill="#e3e5e5"/><path d="M17.305 9.32c0-1.744 1.676-1.744 1.676 0 2.594-1.439 4.426 1.864 1.832 3.303.838.847-1.403 3.064-2.241 2.216 0 1.155-1.331 1.798-2.572 1.823V9.321z" fill="#edeeee"/></svg>
